X: 101
T:Where Will Our Goodman Lie. HA.100
T:Black & Grey,aka. HA.100
T:Duke of Hamilton's Reel,aka. HA.100
M:C
L:1/4
Q:160
S:Henry Atkinson's original MS,Hartburn,N'umberland,1694.
O:England
A:Hartburn,Northumberland
N:cf James Oswald Pocket Companion, 1760..Walsh's Caledonian Country
N:Dances.. 1754  .Aka Lady Hamilton's Rant, As She Pissed She Paddled In
N:It..CGP.
H:1/4
Z:vmp.Chris Partington.Jan.2004
K:C
GGBA|B>AGc|A>GFf|A>GFF|!
GGBA|B>AGc|A(G/F/) (A/B/)(c/A/)|G2d2||!
gd(B/c/)(d/B/)|gd(B/c/)(d/B/)|fc(A/B/)(c/A/)|fc(A/B/)(c/A/)|!
gd(e/f/)(g/f/)|(g/f/)(e/d/) (e/d/)(c/B/)|A(G/F/) (A/B/)(c/A/)|G2d2|]
